X:191
T:Miners of Wiclow,The. RH.191
R:Jig
S:Rev.R.Harrison’s MS,c1815,Cumbria
O:England
A:Temple Sowerby,Cumbria
Z:vmp.Simon Wilson. Review PJH, 2008.
M:6/8
L:1/8
Q:3/8=120
K:D
d|E2A A2=c|BGB AFA|BGE EFG|AFD DED|\
F2A A2=c|BGB AFA|(B/c/dB) (c/d/ec)|d3 d2:|!
|:g|fdf fdf|ece ece|fdf fdf|g3 a2g|\
fdf fdf|ecA ABA|(B/c/dB) (c/d/ec)|d3 d2:|

